X: 1
T: Sheriff's Ride (Lichfield)
C: Trad
R: Morris
L: 1/8
M: 4/4
K: Em
Z: ABC transcription by Verge Roller
r: 32
|: BA | "Em" G2 E2 E2 FG | "D" AG F2 "Em" E2 B2 | "C" e2 e2 e2 fe | "G" d2 B2 B3 B |
"G" d2 d2 "Em" e2  Bc | "G" dc B2 "Am" A2 E2 | "Em" G2 B2 "Bm" dcBA | "Em" BE E2 E2 :|
|: z2 | "C" e2 e2 e2 fe | "G" d2 B2 B3 B | "C" e2 efgf e2 | "G" d2 B2 B3 B |
"G" d2 d2 "Em" e2 Bc | "G" dc B2 "Am" A2 E2 | "Em" G2 B2 "Bm" dcBA | "Em" BE E2 E2 :|
